X: 42
T:Horses Branle
M:4/4
L:1/4
R:Branle
B:Thoinot Arbeau : Orchesographie, 1589
Z:Steve Mansfield March 2001
K:GMix
GA BB | cB Ac | BA GF | E2 D2 |
GA BB | cB Ac | BG AA | G2 |
d c/B/ A A/B/ | c B/A/ GB | AG FG | A2 A2 |
d c/B/ A A/B/ | c B/A/ GB | AG GF | G2 G2 ||
_B A/G/ _B A/G/ | FG A2 | DE FG | AB AG |
_B A/G/ _B A/G/ | FG A2 | DE FG | G^F G2 ||

